src/assets/protocols/brownfi.svg

<svg viewBox="0 0 128 128" fill="none" xmlns="http://www.w3.org/2000/svg">
<path d="M95.2328 64.3271V89.7991L63.5192 102.428V128L127.985 101.874V75.52L95.2328 64.3271Z" fill="#773030"/>
<path d="M128 25.4578V51.8116L31.8206 87.7228V115.044L0 102.756V24.8036L63.5191 0L95.752 12.7289L31.9428 39.0828V64.3272L95.752 38.4143V12.7289L128 25.4578Z" fill="#773030"/>
</svg>

<svg xmlns="http://www.w3.org/2000/svg" fill="none" viewBox="0 0 128 128"><path fill="#773030" d="M95.233 64.327V89.8l-31.714 12.629V128l64.466-26.126V75.52z"/><path fill="#773030" d="M128 25.458v26.354l-96.18 35.91v27.322L0 102.756V24.804L63.52 0l32.232 12.729-63.81 26.354v25.244l63.81-25.913V12.73z"/></svg>
